X:487
T:Vals # 487
T: efter Melker Andersson
M:3/4
L:1/8
K: D
Q: 160
|DF AF AF| DG BG BG| DF AF AF| [EA,]2 {F}[EA,]D [EA,]2| DF AF AF| DG BG BG|
Ac ec ec| d4 z2 :: ef gf ge| Ad fA df| Ac eA ce| de fg a2|
ef gf ge| Ad fA df| Ac eA ce| d4z2:|

